X: 3
T: The Bunch Of Green Rushes
R: reel
M: 4/4
L: 1/8
K: Dmix
d|:cAGE ~=F3d|cAGc AddB|cAGE =F2ag|^fdec AddB:||:AddB cAGE|~=FGAc {d}cAGc|AddB cAGA|1 cdeg {a}gedc:|2 cdeg {a}gecA|||d2^fd adfd|c2ec gcec|d2fd adfd|cAGc Addc||d2fd adfd|c2cB cdeg|gf (3gfe fded|cAGc Add2||


Tune 1335	Setting 25685

